docs/corn.svg

<?xml version="1.0" encoding="utf-8"?>
<svg version="1.1" x="0px" y="0px" viewBox="0 0 50 50" enable-background="new 0 0 50 50" id="svg10" width="50" height="50" xmlns="http://www.w3.org/2000/svg">
  <defs id="defs14"/>
  <g>
    <path d="M 31.77789 19.78989 L 24.40789 27.15989 C 26.587889999999998 29.239890000000003 28.91789 31.04989 31.267889999999998 32.45989 C 33.60789 30.239890000000003 35.84789 27.90989 38.32789 24.949890000000003 C 36.07787999999999 23.509900000000002 33.84788999999999 21.759900000000002 31.777889999999996 19.789890000000003 L 31.77789 19.78989 Z" id="path2" style="fill: rgb(255, 193, 7);"/>
    <path d="M 40.687889999999996 10.879889999999996 L 33.31789 18.249889999999997 C 35.33789 20.169889999999995 37.51789 21.879889999999996 39.70789 23.249889999999997 C 42.03789 20.32989 43.95789 17.519889999999997 45.45789 14.859889999999996 C 43.82788 13.689889999999997 42.22789 12.359889999999996 40.687889999999996 10.879889999999996 Z" id="path2" style="fill: rgb(255, 193, 7);"/>
    <path d="M 48.66788 2.8998899999999965 L 42.22788 9.349889999999997 C 43.61788 10.669889999999997 45.04788 11.869889999999996 46.50788 12.929889999999997 C 48.74789 8.489889999999995 49.50788 4.909889999999997 48.66788 2.8998899999999974 L 48.66788 2.8998899999999965 Z" id="path2" style="fill: rgb(255, 193, 7);"/>
    <path d="M 37.08788 3.5198899999999966 C 38.14788 4.969889999999997 39.347879999999996 6.409889999999997 40.68788 7.809889999999997 L 47.12788 1.3598899999999965 C 45.107879999999994 0.5398899999999964 41.48788 1.3098899999999964 37.08788 3.5198899999999966 Z" id="path2" style="fill: rgb(255, 193, 7);"/>
    <path d="M 35.16788 4.559889999999997 C 32.497879999999995 6.059889999999997 29.687879999999996 7.989889999999997 26.767879999999998 10.309889999999996 C 28.147879999999997 12.509889999999995 29.857879999999998 14.689889999999995 31.777879999999996 16.709889999999994 L 39.147879999999994 9.349889999999995 C 37.657889999999995 7.789889999999994 36.32787999999999 6.189889999999995 35.16788 4.559889999999995 L 35.16788 4.559889999999997 Z" id="path2" style="fill: rgb(255, 193, 7);"/>
    <path d="M 25.07788 11.699889999999996 C 22.497880000000002 13.859889999999996 19.94788 16.249889999999997 17.55788 18.749889999999997 C 18.97788 21.09989 20.78788 23.43989 22.86788 25.629889999999996 L 30.23788 18.249889999999997 C 28.26789 16.179899999999996 26.51789 13.959899999999998 25.07788 11.699889999999996 Z" id="path2" style="fill: rgb(255, 193, 7);"/>
    <path d="M 22.86789 28.699889999999996 L 18.04789 33.51989 C 21.88789 33.309889999999996 25.72789 33.419889999999995 29.52789 34.099889999999995 C 29.55789 34.069889999999994 29.59789 34.03988999999999 29.62789 34.00988999999999 C 27.30788 32.549899999999994 25.00788 30.74989999999999 22.867890000000003 28.699889999999993 L 22.86789 28.699889999999996 Z" id="path2" style="fill: rgb(255, 193, 7);"/>
    <path d="M 21.32788 27.159889999999997 C 19.27788 25.00989 17.46788 22.709889999999998 16.01788 20.389889999999998 C 15.987880000000002 20.429889999999997 15.947880000000001 20.459889999999998 15.917880000000002 20.499889999999997 C 16.507880000000004 23.989889999999995 16.76788 27.309889999999996 16.507880000000004 31.979889999999997 L 21.32788 27.159889999999997 Z" id="path2" style="fill: rgb(255, 193, 7);"/>
    <path d="M 9.03788 9.079899999999999 C 11.93788 17.619899999999998 8.51788 29.0899 4.837879999999999 35.5899 C 7.227879999999999 34.8199 11.747879999999999 34.1399 14.177879999999998 33.8399 C 14.927889999999998 25.479889999999997 14.047879999999997 15.76989 9.037879999999998 9.079899999999999 L 9.03788 9.079899999999999 Z" id="path2" style="fill: rgb(85, 224, 15);"/>
    <path d="M 8.53788 36.9599 C 0.047879999999999256 38.8499 -0.08211999999999975 44.329899999999995 2.39788 46.799899999999994 C 2.5078799999999997 46.91989999999999 2.59788 47.049899999999994 2.64788 47.19989999999999 C 3.8278799999999995 48.479899999999994 5.047879999999999 48.95989999999999 6.26788 48.95989999999999 C 8.83788 48.95989999999999 11.41788 46.85989999999999 13.66788 45.66989999999999 C 21.427880000000002 41.35989999999999 32.267880000000005 38.02989999999999 40.877880000000005 40.94989999999999 C 32.057880000000004 34.63989999999999 19.167880000000004 34.759899999999995 8.537880000000001 36.95989999999999 L 8.53788 36.9599 Z" id="path2" style="fill: rgb(85, 224, 15);"/>
  </g>
</svg>

<?xml version="1.0" encoding="UTF-8" standalone="no"?>
<svg
   xmlns:dc="http://purl.org/dc/elements/1.1/"
   xmlns:cc="http://creativecommons.org/ns#"
   xmlns:rdf="http://www.w3.org/1999/02/22-rdf-syntax-ns#"
   xmlns:svg="http://www.w3.org/2000/svg"
   xmlns="http://www.w3.org/2000/svg"
   xmlns:sodipodi="http://sodipodi.sourceforge.net/DTD/sodipodi-0.dtd"
   xmlns:inkscape="http://www.inkscape.org/namespaces/inkscape"
   version="1.1"
   x="0px"
   y="0px"
   viewBox="0 0 50 50"
   enable-background="new 0 0 50 50"
   xml:space="preserve"
   id="svg10"
   sodipodi:docname="corn.svg"
   width="50"
   height="50"
   inkscape:version="1.0.2 (e86c870879, 2021-01-15, custom)"><metadata
     id="metadata16"><rdf:RDF><cc:Work
         rdf:about=""><dc:format>image/svg+xml</dc:format><dc:type
           rdf:resource="http://purl.org/dc/dcmitype/StillImage" /><dc:title></dc:title></cc:Work></rdf:RDF></metadata><defs
     id="defs14" /><sodipodi:namedview
     pagecolor="#ffffff"
     bordercolor="#666666"
     borderopacity="1"
     objecttolerance="10"
     gridtolerance="10"
     guidetolerance="10"
     inkscape:pageopacity="0"
     inkscape:pageshadow="2"
     inkscape:window-width="1600"
     inkscape:window-height="837"
     id="namedview12"
     showgrid="false"
     inkscape:zoom="7.5801847"
     inkscape:cx="35.484516"
     inkscape:cy="40.12567"
     inkscape:window-x="-8"
     inkscape:window-y="-8"
     inkscape:window-maximized="1"
     inkscape:current-layer="svg10" /><g
     id="g4"><path
       d="m 31.77789,19.78989 -7.37,7.37 c 2.18,2.08 4.51,3.89 6.86,5.3 2.34,-2.22 4.58,-4.55 7.06,-7.51 -2.25001,-1.43999 -4.48,-3.18999 -6.55,-5.16 z M 8.53788,36.9599 c -8.49,1.89 -8.62,7.37 -6.14,9.84 0.11,0.12 0.2,0.25 0.25,0.4 1.18,1.28 2.4,1.76 3.62,1.76 2.57,0 5.15,-2.1 7.4,-3.29 7.76,-4.31 18.6,-7.64 27.21,-4.72 -8.82,-6.31 -21.71,-6.19 -32.34,-3.99 z m 0.5,-27.88 c 2.9,8.54 -0.52,20.01 -4.2,26.51 2.39,-0.77 6.91,-1.45 9.34,-1.75 0.75001,-8.36001 -0.13,-18.07001 -5.14,-24.76 z m 12.29,18.07999 c -2.05,-2.15 -3.86,-4.45 -5.31,-6.77 -0.03,0.04 -0.07,0.07 -0.1,0.11 0.59,3.49 0.85,6.81 0.59,11.48 z m 1.54001,1.54 -4.82,4.82 c 3.84,-0.21 7.68,-0.1 11.48,0.58 0.03,-0.03 0.07,-0.06 0.1,-0.09 -2.32001,-1.45999 -4.62001,-3.25999 -6.76,-5.31 z m 2.20999,-17 c -2.58,2.16 -5.13,4.55 -7.52,7.05 1.42,2.35 3.23,4.69 5.31,6.88 l 7.37,-7.38 c -1.96999,-2.06999 -3.71999,-4.28999 -5.16,-6.55 z m 10.09,-7.14 c -2.67,1.5 -5.48,3.43 -8.4,5.75 1.38,2.2 3.09,4.38 5.01,6.4 l 7.37,-7.36 c -1.48999,-1.56 -2.82,-3.16 -3.98,-4.79 z m 1.92,-1.04 c 1.06,1.45 2.26,2.89 3.6,4.29 l 6.44,-6.45 c -2.02,-0.82 -5.64,-0.05 -10.04,2.16 z m 11.58,-0.62 -6.44,6.45 c 1.39,1.32 2.82,2.52 4.28,3.58 2.24001,-4.44 3,-8.02 2.16,-10.03 z m -7.97999,7.98 -7.37,7.37 c 2.02,1.92 4.2,3.63 6.39,5 2.33,-2.92 4.25,-5.73 5.75,-8.39 -1.63001,-1.17 -3.23,-2.5 -4.77,-3.98 z"
       id="path2" /></g></svg>
